X:483
T:The Mountain Road
M:C|
L:1/8
K:D
DE|"D"F2 AF BFAF|F2 AF "A"EFDE|"D"F2 AF BFAF|"G"G2 FG "A"EFDE|
"D"F2 AF BFAF|F2 AF "A"EFDE|"D"FAAA "G"BAFB|"A"ABde "D"fd d2||
"D"dcdB ADFA|dcde "A"fgfe|"D"dcdB ADFA|"G"G2 FG "A"EFDE|
"D"dcdB ADFA|dcde "A"fgfe|"D"dcdB ADFA|"G"G2 FG "A"EFDE|]
